!!!OTL: Dui huadeng, 1)
!!!ARE: Asia, China,ÿHenan, Zhenping
!! IV, 155
!!!SCT: C1661A
!!!YEM: Copyright 1995, estate of Helmut Schaffrath.
**kern
*ICvox
*Ivox
*M2/4
*k[f#]
*G:
{8.dd
16dd
8dd
8b
=1
8dd
8dd
4gg
=2
4gg
8ee
8dd
=3
8.dd
16b
4a}
=4
{8dd
16ee
16gg
8ee
8dd
=5
8dd
8b
8a
8b
=6
16g
16a
8b
4a}
=7
{8.dd
16dd
8dd
8dd
=8
8dd
8gg
4g}
=9
{4g
4g
=10
8g
16g
16e
4d
=11
8d
8g
8d
8g
=12
16e
16d
16e
16g
4d}
==
!!!AGN: Wuge, Yayou diao
!!!AMT: simple duple
!!!AIN: vox
!!!EED: Helmut Schaffrath
!!!EEV: 1.0
*-
